hosted_logos/score.svg

<svg xmlns="http://www.w3.org/2000/svg" role="img" viewBox="193.95 67.95 490.60 522.60"><path fill="url(#paint0_linear_1815_14)" d="M562.605 138.531l17.631-52.2283c1.135-4.2567-1.397-7.6922-5.703-7.6828l-108.947.1957c-4.306.0095-8.706 3.4711-9.841 7.7278l-10.56 39.5816-.129-.034-43.712 163.439c-10.173-4.268-22.647-6.735-36.672-6.698-42.534.07-83.08 22.68-90.502 50.504-7.423 27.824 21.018 50.278 63.577 50.215 41.208-.066 80.397-21.316 89.615-47.906l.512-1.503 52.29-195.487 39.999-.085 42.442-.039z"/><path fill="url(#paint1_linear_1815_14)" d="M364.416 257.359l10.146-36.687-79.141-42.802 101.463-52.992L409.06 78l-178.576 95.033v9.675l133.932 74.651z"/><path fill="url(#paint2_linear_1815_14)" d="M514.582 175.832l-10.147 36.687 79.142 42.801-101.464 52.993-12.175 46.877 178.575-95.032v-9.675l-133.931-74.651z"/><path fill="#151523" d="M265.347 522.417c-4.851-2.72-10.295-5.304-16.17-7.654-3.469-1.446-6.826-2.98-9.949-4.55-3.024-1.509-5.505-3.24-7.406-5.132-1.704-1.694-2.531-3.573-2.531-5.712 0-2.733.975-4.612 3.061-5.886 2.321-1.422 5.172-2.139 8.456-2.139 4.888 0 9.319 1.162 13.17 3.462 3.543 2.115 6.592 4.773 9.073 7.901 1.074 1.348 2.962 1.682 4.394.755l11.665-7.481c1.494-.965 1.987-2.968 1.074-4.489-2.074-3.462-4.851-6.603-8.258-9.335-3.789-3.03-8.196-5.49-13.084-7.296-4.925-1.817-10.245-2.745-15.837-2.745-5.592 0-11.072 1.002-16.294 2.968-5.32 2.015-9.714 5.156-13.035 9.335-3.382 4.254-5.097 9.658-5.097 16.05 0 6.393 1.641 11.512 4.863 15.692 3.135 4.055 7.073 7.394 11.739 9.916 4.48 2.436 8.998 4.563 13.467 6.356 3.851 1.434 7.554 2.992 11.01 4.649 3.271 1.571 5.999 3.512 8.098 5.738 1.95 2.077 2.9 4.575 2.9 7.617 0 3.388-1.172 5.972-3.579 7.888-2.494 1.991-6.049 3.005-10.566 3.005-3.815 0-7.357-.717-10.53-2.139-3.209-1.434-6.073-3.413-8.529-5.873-2.21-2.214-4.222-4.613-5.999-7.147-1.012-1.435-2.975-1.843-4.456-.928l-11.418 7.085c-1.481.915-2.012 2.832-1.197 4.365 1.938 3.66 4.666 7.296 8.11 10.82 3.863 3.944 8.652 7.208 14.232 9.706 5.604 2.51 11.973 3.772 18.91 3.772 10.788 0 19.627-3.116 26.292-9.249 6.703-6.171 10.109-14.01 10.109-23.272 0-6.368-1.555-11.672-4.628-15.79-2.988-3.981-7.036-7.431-12.06-10.25v-.013zm99.212-46.801c-6.744-2.325-13.788-3.5-20.907-3.5-10.184 0-19.517 2.362-27.762 7.036-8.233 4.674-14.839 11.166-19.643 19.302s-7.244 17.595-7.244 28.106c0 10.51 2.44 19.771 7.231 27.982 4.805 8.21 11.411 14.739 19.643 19.413 8.233 4.674 17.566 7.036 27.763 7.036 7.119 0 14.15-1.175 20.906-3.5 6.618-2.275 11.861-5.515 15.577-9.607.55-.606.85-1.398.85-2.226v-16.124c0-1.434-.888-2.671-2.252-3.128-1.376-.47-2.84-.05-3.753 1.088-1.226 1.533-2.765 3.041-4.567 4.501-3.365 2.707-7.394 4.884-11.986 6.491-4.579 1.608-9.558 2.411-14.8 2.411-6.281 0-11.974-1.496-16.891-4.451-4.942-2.955-8.908-7.048-11.76-12.143-2.865-5.106-4.317-11.079-4.317-17.743 0-6.665 1.452-12.687 4.317-17.868 2.852-5.156 6.806-9.237 11.735-12.118 4.93-2.881 10.622-4.352 16.916-4.352 5.229 0 10.209.816 14.8 2.411 4.592 1.607 8.633 3.759 11.999 6.393 1.801 1.409 3.328 2.918 4.554 4.464.876 1.125 2.339 1.558 3.703 1.088 1.389-.47 2.29-1.707 2.29-3.153v-15.988c0-.829-.3-1.62-.851-2.226-3.716-4.093-8.958-7.333-15.577-9.608l.026.013zm107.202 3.536c-8.022-4.674-17.224-7.036-27.371-7.036-10.148 0-19.165 2.362-27.261 7.036-8.084 4.674-14.571 11.166-19.288 19.302-4.718 8.136-7.113 17.595-7.113 28.106 0 10.51 2.395 19.771 7.101 27.982 4.717 8.21 11.204 14.739 19.287 19.413 8.084 4.674 17.249 7.036 27.261 7.036 10.013 0 19.362-2.374 27.372-7.036 8.01-4.674 14.459-11.203 19.177-19.413 4.717-8.211 7.101-17.62 7.101-27.982 0-10.362-2.396-19.97-7.114-28.106-4.705-8.124-11.154-14.616-19.164-19.29l.012-.012zm-27.371 81.733c-6.168 0-11.757-1.496-16.585-4.451-4.853-2.956-8.748-7.049-11.549-12.143-2.813-5.107-4.238-11.079-4.238-17.744 0-6.665 1.425-12.686 4.238-17.867 2.801-5.157 6.684-9.237 11.524-12.118 4.84-2.881 10.43-4.353 16.61-4.353 6.179 0 11.756 1.46 16.609 4.353 4.84 2.881 8.723 6.961 11.524 12.118 2.813 5.181 4.238 11.202 4.238 17.867 0 6.665-1.425 12.637-4.238 17.744-2.814 5.094-6.696 9.187-11.548 12.143-4.841 2.955-10.418 4.451-16.585 4.451zm120.687-87.249c-3.325-1.009-6.96-1.52-10.795-1.52-5.118 0-10.185 1.993-15.066 5.929-1.594 1.283-3.1 2.727-4.507 4.334v-4.708c0-1.843-1.507-3.35-3.35-3.35h-14.655c-1.842 0-3.349 1.507-3.349 3.35v98.555c0 1.844 1.507 3.351 3.349 3.351h14.655c1.843 0 3.35-1.507 3.35-3.351v-61.502c0-.087.012-.174.012-.261.087-4.11.548-7.847 1.37-11.135.859-3.437 2.415-6.178 4.619-8.121 2.142-1.893 5.217-2.852 9.152-2.852 2.677 0 4.88.362 6.561 1.071 1.445.611 3.076 1.557 4.831 2.778.735.511 1.631.71 2.516.535.884-.161 1.668-.685 2.166-1.432l8.168-12.243c.896-1.358.71-3.139-.448-4.26-2.615-2.503-5.504-4.247-8.592-5.193l.013.025zm104.006 23.616c-3.965-8.037-9.732-14.305-17.14-18.633-7.383-4.314-16.333-6.503-26.6-6.503-10.267 0-19.44 2.3-27.258 6.825-7.831 4.537-13.996 10.979-18.322 19.139-4.313 8.123-6.488 17.692-6.488 28.473 0 10.782 2.101 20.116 6.265 28.227 4.176 8.16 10.105 14.626 17.638 19.25 7.532 4.611 16.27 6.961 25.978 6.961 11.124 0 20.944-2.251 29.185-6.689 7.83-4.216 14.493-10.447 19.788-18.509.484-.741.659-1.644.46-2.509-.199-.878-.721-1.632-1.492-2.115l-11.771-7.381c-1.554-.976-3.617-.507-4.599 1.051-3.344 5.218-7.383 9.186-12.007 11.808-4.984 2.818-10.826 4.253-17.377 4.253-6.55 0-12.144-1.385-16.668-4.117-4.5-2.708-7.967-6.714-10.292-11.894-1.578-3.499-2.647-7.567-3.182-12.104h76.306c1.765 0 3.22-1.373 3.331-3.116l.05-.68c.075-1.137.112-2.25.112-3.301 0-10.892-1.989-20.462-5.917-28.424v-.012zm-70.389 9.371c2.399-4.982 5.867-8.84 10.304-11.498 4.462-2.658 9.956-4.018 16.345-4.018 5.37 0 10.093 1.174 14.046 3.474 3.952 2.312 7.097 5.539 9.347 9.607 1.616 2.917 2.66 6.268 3.12 10.002h-55.772c.634-2.77 1.504-5.292 2.598-7.567h.012z"/><defs><linearGradient id="paint0_linear_1815_14" x1="269.04" x2="605.688" y1="359.887" y2="81.261" gradientUnits="userSpaceOnUse"><stop offset=".521" stop-color="#D9297D"/><stop offset="1" stop-color="#F18520"/></linearGradient><linearGradient id="paint1_linear_1815_14" x1="269.04" x2="605.688" y1="359.887" y2="81.261" gradientUnits="userSpaceOnUse"><stop offset=".521" stop-color="#D9297D"/><stop offset="1" stop-color="#F18520"/></linearGradient><linearGradient id="paint2_linear_1815_14" x1="269.04" x2="605.688" y1="359.887" y2="81.261" gradientUnits="userSpaceOnUse"><stop offset=".521" stop-color="#D9297D"/><stop offset="1" stop-color="#F18520"/></linearGradient></defs></svg>

<svg width="879" height="658" viewBox="0 0 879 658" fill="none" xmlns="http://www.w3.org/2000/svg">
<path d="M562.605 138.531L580.236 86.3027C581.371 82.046 578.839 78.6105 574.533 78.6199L465.586 78.8156C461.28 78.8251 456.88 82.2867 455.745 86.5434L445.185 126.125L445.056 126.091L401.344 289.53C391.171 285.262 378.697 282.795 364.672 282.832C322.138 282.902 281.592 305.512 274.17 333.336C266.747 361.16 295.188 383.614 337.747 383.551C378.955 383.485 418.144 362.235 427.362 335.645L427.874 334.142L480.164 138.655L520.163 138.57L562.605 138.531Z" fill="url(#paint0_linear_1815_14)"/>
<path d="M364.416 257.359L374.562 220.672L295.421 177.87L396.884 124.878L409.06 78L230.484 173.033V182.708L364.416 257.359Z" fill="url(#paint1_linear_1815_14)"/>
<path d="M514.582 175.832L504.435 212.519L583.577 255.32L482.113 308.313L469.938 355.19L648.513 260.158V250.483L514.582 175.832Z" fill="url(#paint2_linear_1815_14)"/>
<path d="M265.347 522.417C260.496 519.697 255.052 517.113 249.177 514.763C245.708 513.317 242.351 511.783 239.228 510.213C236.204 508.704 233.723 506.973 231.822 505.081C230.118 503.387 229.291 501.508 229.291 499.369C229.291 496.636 230.266 494.757 232.352 493.483C234.673 492.061 237.524 491.344 240.808 491.344C245.696 491.344 250.127 492.506 253.978 494.806C257.521 496.921 260.57 499.579 263.051 502.707C264.125 504.055 266.013 504.389 267.445 503.462L279.11 495.981C280.604 495.016 281.097 493.013 280.184 491.492C278.11 488.03 275.333 484.889 271.926 482.157C268.137 479.127 263.73 476.667 258.842 474.861C253.917 473.044 248.597 472.116 243.005 472.116C237.413 472.116 231.933 473.118 226.711 475.084C221.391 477.099 216.997 480.24 213.676 484.419C210.294 488.673 208.579 494.077 208.579 500.469C208.579 506.862 210.22 511.981 213.442 516.161C216.577 520.216 220.515 523.555 225.181 526.077C229.661 528.513 234.179 530.64 238.648 532.433C242.499 533.867 246.202 535.425 249.658 537.082C252.929 538.653 255.657 540.594 257.756 542.82C259.706 544.897 260.656 547.395 260.656 550.437C260.656 553.825 259.484 556.409 257.077 558.325C254.583 560.316 251.028 561.33 246.511 561.33C242.696 561.33 239.154 560.613 235.981 559.191C232.772 557.757 229.908 555.778 227.452 553.318C225.242 551.104 223.23 548.705 221.453 546.171C220.441 544.736 218.478 544.328 216.997 545.243L205.579 552.328C204.098 553.243 203.567 555.16 204.382 556.693C206.32 560.353 209.048 563.989 212.492 567.513C216.355 571.457 221.144 574.721 226.724 577.219C232.328 579.729 238.697 580.991 245.634 580.991C256.422 580.991 265.261 577.875 271.926 571.742C278.629 565.571 282.035 557.732 282.035 548.47C282.035 542.102 280.48 536.798 277.407 532.68C274.419 528.699 270.371 525.249 265.347 522.43V522.417Z" fill="#151523"/>
<path d="M364.559 475.616C357.815 473.291 350.771 472.116 343.652 472.116C333.468 472.116 324.135 474.478 315.89 479.152C307.657 483.826 301.051 490.318 296.247 498.454C291.443 506.59 289.003 516.049 289.003 526.56C289.003 537.07 291.443 546.331 296.234 554.542C301.039 562.752 307.645 569.281 315.877 573.955C324.11 578.629 333.443 580.991 343.64 580.991C350.759 580.991 357.79 579.816 364.546 577.491C371.164 575.216 376.407 571.976 380.123 567.884C380.673 567.278 380.973 566.486 380.973 565.658V549.534C380.973 548.1 380.085 546.863 378.721 546.406C377.345 545.936 375.881 546.356 374.968 547.494C373.742 549.027 372.203 550.535 370.401 551.995C367.036 554.702 363.007 556.879 358.415 558.486C353.836 560.094 348.857 560.897 343.615 560.897C337.334 560.897 331.641 559.401 326.724 556.446C321.782 553.491 317.816 549.398 314.964 544.303C312.099 539.197 310.647 533.224 310.647 526.56C310.647 519.895 312.099 513.873 314.964 508.692C317.816 503.536 321.77 499.455 326.699 496.574C331.629 493.693 337.321 492.222 343.615 492.222C348.844 492.222 353.824 493.038 358.415 494.633C363.007 496.24 367.048 498.392 370.414 501.026C372.215 502.435 373.742 503.944 374.968 505.49C375.844 506.615 377.307 507.048 378.671 506.578C380.06 506.108 380.961 504.871 380.961 503.425V487.437C380.961 486.608 380.661 485.817 380.11 485.211C376.394 481.118 371.152 477.878 364.533 475.603L364.559 475.616Z" fill="#151523"/>
<path d="M471.761 479.152C463.739 474.478 454.537 472.116 444.39 472.116C434.242 472.116 425.225 474.478 417.129 479.152C409.045 483.826 402.558 490.318 397.841 498.454C393.123 506.59 390.728 516.049 390.728 526.56C390.728 537.07 393.123 546.331 397.829 554.542C402.546 562.752 409.033 569.281 417.116 573.955C425.2 578.629 434.365 580.991 444.377 580.991C454.39 580.991 463.739 578.617 471.749 573.955C479.759 569.281 486.208 562.752 490.926 554.542C495.643 546.331 498.027 536.922 498.027 526.56C498.027 516.198 495.631 506.59 490.913 498.454C486.208 490.33 479.759 483.838 471.749 479.164L471.761 479.152ZM444.39 560.885C438.222 560.885 432.633 559.389 427.805 556.434C422.952 553.478 419.057 549.385 416.256 544.291C413.443 539.184 412.018 533.212 412.018 526.547C412.018 519.882 413.443 513.861 416.256 508.68C419.057 503.523 422.94 499.443 427.78 496.562C432.62 493.681 438.21 492.209 444.39 492.209C450.569 492.209 456.146 493.669 460.999 496.562C465.839 499.443 469.722 503.523 472.523 508.68C475.336 513.861 476.761 519.882 476.761 526.547C476.761 533.212 475.336 539.184 472.523 544.291C469.709 549.385 465.827 553.478 460.975 556.434C456.134 559.389 450.557 560.885 444.39 560.885Z" fill="#151523"/>
<path d="M565.077 473.636C561.752 472.627 558.117 472.116 554.282 472.116C549.164 472.116 544.097 474.109 539.216 478.045C537.622 479.328 536.116 480.772 534.709 482.379V477.671C534.709 475.828 533.202 474.321 531.359 474.321H516.704C514.862 474.321 513.355 475.828 513.355 477.671V576.226C513.355 578.07 514.862 579.577 516.704 579.577H531.359C533.202 579.577 534.709 578.07 534.709 576.226V514.724C534.709 514.637 534.721 514.55 534.721 514.463C534.808 510.353 535.269 506.616 536.091 503.328C536.95 499.891 538.506 497.15 540.71 495.207C542.852 493.314 545.927 492.355 549.862 492.355C552.539 492.355 554.742 492.717 556.423 493.426C557.868 494.037 559.499 494.983 561.254 496.204C561.989 496.715 562.885 496.914 563.77 496.739C564.654 496.578 565.438 496.054 565.936 495.307L574.104 483.064C575 481.706 574.814 479.925 573.656 478.804C571.041 476.301 568.152 474.557 565.064 473.611L565.077 473.636Z" fill="#151523"/>
<path d="M669.083 497.252C665.118 489.215 659.351 482.947 651.943 478.619C644.56 474.305 635.61 472.116 625.343 472.116C615.076 472.116 605.903 474.416 598.085 478.941C590.254 483.478 584.089 489.92 579.763 498.08C575.45 506.203 573.275 515.772 573.275 526.553C573.275 537.335 575.376 546.669 579.54 554.78C583.716 562.94 589.645 569.406 597.178 574.03C604.71 578.641 613.448 580.991 623.156 580.991C634.28 580.991 644.1 578.74 652.341 574.302C660.171 570.086 666.834 563.855 672.129 555.793C672.613 555.052 672.788 554.149 672.589 553.284C672.39 552.406 671.868 551.652 671.097 551.169L659.326 543.788C657.772 542.812 655.709 543.281 654.727 544.839C651.383 550.057 647.344 554.025 642.72 556.647C637.736 559.465 631.894 560.9 625.343 560.9C618.793 560.9 613.199 559.515 608.675 556.783C604.175 554.075 600.708 550.069 598.383 544.889C596.805 541.39 595.736 537.322 595.201 532.785H671.507C673.272 532.785 674.727 531.412 674.838 529.669L674.888 528.989C674.963 527.852 675 526.739 675 525.688C675 514.796 673.011 505.226 669.083 497.264V497.252ZM598.694 506.623C601.093 501.641 604.561 497.783 608.998 495.125C613.46 492.467 618.954 491.107 625.343 491.107C630.713 491.107 635.436 492.281 639.389 494.581C643.341 496.893 646.486 500.12 648.736 504.188C650.352 507.105 651.396 510.456 651.856 514.19H596.084C596.718 511.42 597.588 508.898 598.682 506.623H598.694Z" fill="#151523"/>
<defs>
<linearGradient id="paint0_linear_1815_14" x1="269.04" y1="359.887" x2="605.688" y2="81.2614" gradientUnits="userSpaceOnUse">
<stop offset="0.520833" stop-color="#D9297D"/>
<stop offset="1" stop-color="#F18520"/>
</linearGradient>
<linearGradient id="paint1_linear_1815_14" x1="269.04" y1="359.887" x2="605.688" y2="81.2614" gradientUnits="userSpaceOnUse">
<stop offset="0.520833" stop-color="#D9297D"/>
<stop offset="1" stop-color="#F18520"/>
</linearGradient>
<linearGradient id="paint2_linear_1815_14" x1="269.04" y1="359.887" x2="605.688" y2="81.2614" gradientUnits="userSpaceOnUse">
<stop offset="0.520833" stop-color="#D9297D"/>
<stop offset="1" stop-color="#F18520"/>
</linearGradient>
</defs>
</svg>
